X: 65
T:Master Henry's
R:Reel
S:Barley Bree Album
Z:Added by alf.warnock@rogers.com
M:4/4
L:1/8
K:G
G2GB AGED|GGBd gedB|G2GB AGED|cBAG E2D2:|
|:g2eg dgeg|g2eg eaa2|[1 g2eg dgeB|cBAG EGD2:|[2 bgaf gfed|^cdef (3gfe dB|]

